src/img/temperature.svg

<svg width="16" height="16" viewBox="0 0 16 16" fill="none" xmlns="http://www.w3.org/2000/svg">
<path d="M8.5 10.0906V5C8.5 4.72656 8.27344 4.5 8 4.5C7.72656 4.5 7.5 4.72656 7.5 5V10.0906C6.91812 10.2977 6.5 10.8484 6.5 11.5009C6.5 12.3291 7.17188 13.0009 8 13.0009C8.82812 13.0009 9.5 12.3291 9.5 11.5009C9.5 10.8469 9.08125 10.2969 8.5 10.0906ZM11.5 8.70312V3.5C11.5 1.56656 9.93375 0 8.02812 0C6.1225 0 4.5 1.56656 4.5 3.5V8.70312C3.88281 9.47656 3.5 10.4375 3.5 11.5C3.5 13.9844 5.51562 15.9719 8 15.9719C10.4844 15.9719 12.5 13.9844 12.5 11.5C12.5 10.4375 12.1187 9.47188 11.5 8.70312ZM8 14C6.62094 14 5.5 12.8791 5.5 11.5281C5.5 10.7312 5.88281 10.0006 6.5 9.53594V3.52656C6.5 2.69844 7.17188 2.02656 8 2.02656C8.82812 2.02656 9.5 2.69844 9.5 3.52656V9.53594C10.1172 9.99687 10.5 10.7312 10.5 11.5281C10.5 12.8781 9.37813 14 8 14Z" fill="white"/>
</svg>

<svg xmlns="http://www.w3.org/2000/svg" width="16" height="16" fill="none"><path fill="#fff" d="M8.5 10.09V5c0-.273-.227-.5-.5-.5s-.5.227-.5.5v5.09A1.498 1.498 0 0 0 8 13a1.496 1.496 0 0 0 .5-2.91m3-1.387V3.5C11.5 1.567 9.934 0 8.028 0S4.5 1.567 4.5 3.5v5.203a4.46 4.46 0 0 0-1 2.797c0 2.484 2.016 4.472 4.5 4.472s4.5-1.988 4.5-4.472a4.44 4.44 0 0 0-1-2.797M8 14c-1.38 0-2.5-1.12-2.5-2.472 0-.797.383-1.527 1-1.992v-6.01a1.5 1.5 0 0 1 3 0v6.01c.617.46 1 1.195 1 1.992C10.5 12.878 9.378 14 8 14"/></svg>
